templates/main/source/images/logotype-footer.svg

<?xml version="1.0" encoding="UTF-8"?>
<svg width="221px" height="55px" viewBox="0 0 221 55" version="1.1" xmlns="http://www.w3.org/2000/svg" xmlns:xlink="http://www.w3.org/1999/xlink">
    <!-- Generator: sketchtool 50.1 (55044) - http://www.bohemiancoding.com/sketch -->
    <title>3D12D0E9-2AE8-42A5-9342-CFF882207706</title>
    <desc>Created with sketchtool.</desc>
    <defs>
        <polygon id="path-1" points="0.0482467756 0.238722078 49.6926895 0.238722078 49.6926895 46.818346 0.0482467756 46.818346"></polygon>
    </defs>
    <g id="Kitchen" stroke="none" stroke-width="1" fill="none" fill-rule="evenodd">
        <g id="Index" transform="translate(-135.000000, -5672.000000)">
            <g id="footer" transform="translate(0.000000, 4227.000000)">
                <g id="logotype" transform="translate(135.000000, 1445.000000)">
                    <text id="I-Love-Kitchen" font-family="Circe-Bold, Circe" font-size="27.6" font-weight="bold" letter-spacing="0.165599981" fill="#1A1A1A">
                        <tspan x="127.266667" y="21">I </tspan>
                        <tspan x="143.026267" y="21" font-family="Circe-ExtraBold, Circe" font-weight="600">Love</tspan>
                        <tspan x="200.737867" y="21"></tspan>
                        <tspan x="127.266667" y="48">Kitchen</tspan>
                    </text>
                    <g id="symbol">
                        <path d="M7.14149672,5.20521662 C7.20382304,5.49985558 13.3704627,34.8970816 13.8082135,53.2586088 C13.8309443,54.2077621 14.6265215,54.9612062 15.5944126,54.9612062 C15.6083444,54.9612062 15.6230094,54.9612062 15.6369411,54.9612062 C16.6238968,54.9389829 17.4055422,54.1403751 17.3820782,53.1783179 C16.9369949,34.5013621 10.7058291,4.80017766 10.6427696,4.50195429 C10.4440586,3.55925299 9.50256447,2.95348675 8.53174034,3.14632831 C7.56458246,3.34060364 6.94205248,4.26179844 7.14149672,5.20521662 Z" id="Fill-1" fill="#1A1A1A"></path>
                        <path d="M102.288348,8.60044675 C101.077017,2.23452468 91.8138593,1.26888312 91.4208369,1.23088831 L89.1602245,1.01295584 L89.4740559,3.20661818 C89.5173177,3.50484156 93.7393761,33.2225143 92.9687294,51.5783065 C92.9284006,52.5403636 93.695381,53.3518753 94.6816034,53.3913039 C94.706534,53.3920208 94.7314645,53.3927377 94.7556618,53.3927377 C95.7096211,53.3927377 96.5007988,52.6586494 96.5411276,51.7209662 C97.1944541,36.1545662 94.335509,12.6859636 93.3434206,5.14578701 C95.4515168,5.70280519 98.3258602,6.88494545 98.7738765,9.23632208 C99.8678868,14.9885922 97.6842657,17.8245818 96.3790792,19.5185766 L96.3145531,19.6024519 C95.7228197,20.3723844 95.8826683,21.4649143 96.6723795,22.0427221 C97.4628239,22.6205299 98.582498,22.4642494 99.1749647,21.6943169 L99.2380243,21.6118753 C100.676662,19.7436779 103.669792,15.8574545 102.288348,8.60044675" id="Fill-3" fill="#1A1A1A"></path>
                        <path d="M15.1445632,1.27899117 C14.1891373,1.52129766 13.6164684,2.47331844 13.8657737,3.40454961 C14.6195556,6.22476779 16.6000661,14.0344925 16.7144533,16.269734 C16.7628478,17.2009652 17.552559,17.9250171 18.4991859,17.9250171 C18.5292491,17.9250171 18.5593124,17.9243003 18.5893757,17.9228665 C19.5755981,17.8748353 20.3345128,17.0561548 20.2853849,16.0948145 C20.1314023,13.0975262 17.6119523,3.59954182 17.3252512,2.52636779 C17.0759459,1.59441974 16.1014556,1.03525091 15.1445632,1.27899117" id="Fill-5" fill="#1A1A1A"></path>
                        <path d="M1.33722959,5.18958857 C0.381803721,5.43261195 -0.190865198,6.38391584 0.0584400933,7.3158639 C0.811488723,10.1353652 2.79273254,17.9436561 2.90711967,20.1803314 C2.95478098,21.1115626 3.74449215,21.8356145 4.691119,21.8356145 C4.72118229,21.8356145 4.75124557,21.8356145 4.78204211,21.8334639 C5.76826451,21.7854327 6.52717915,20.9674691 6.47805134,20.0061288 C6.32406866,17.0088405 3.80461872,7.51013922 3.51791763,6.43624831 C3.26861234,5.50501714 2.2904557,4.94584831 1.33722959,5.18958857" id="Fill-7" fill="#1A1A1A"></path>
                        <g id="Group-11" transform="translate(29.330034, 0.478304)">
                            <mask id="mask-2" fill="white">
                                <use xlink:href="#path-1"></use>
                            </mask>
                            <g id="Clip-10"></g>
                            <path d="M44.5279048,4.54088104 C40.2222558,2.45905247 33.8517723,3.82328104 25.0542285,8.71170701 C18.5942885,12.3011408 15.0050256,16.1135252 14.3854286,20.0434784 C13.9623428,22.7239044 14.9229015,25.3175875 17.2385077,27.7528395 C20.6591229,31.3487252 25.3614606,32.8154681 30.13859,31.7767044 C33.8202425,30.975946 36.7583787,28.7507408 37.6236147,26.1068758 C37.9235143,25.1899823 37.4043727,24.2092862 36.4643451,23.9167979 C35.5250508,23.6228758 34.5175641,24.1304291 34.2176645,25.0473226 C33.7461842,26.4868239 31.7495421,27.8546369 29.3606108,28.3743771 C27.7027306,28.7349694 23.4572082,29.1643823 19.8598795,25.3828239 C18.3017214,23.7440291 17.6667262,22.1711875 17.9189645,20.5732551 C18.3515825,17.8275927 21.5148267,14.6905122 26.8242961,11.7398213 C36.2649009,6.49367065 40.7985909,6.62844468 42.9396834,7.6636239 C44.6224941,8.47728623 45.6263146,10.2379512 46.0090715,13.0466992 C47.5826279,24.5913849 32.2767495,42.3894421 29.3012175,43.3400291 C29.293885,43.3400291 29.2865525,43.3400291 29.27922,43.3400291 C26.8008321,43.3400291 13.1359691,34.1610577 6.39299424,23.4020758 C2.98704401,17.9673849 3.34340393,13.6101694 4.24163623,10.9118213 C5.21319361,7.9948239 7.41294618,5.47211221 9.84587253,4.48568104 C14.7652525,2.48987844 19.5966424,5.08929662 19.639171,5.11295377 C20.4970745,5.59183169 21.5881517,5.30292779 22.0786966,4.46847584 C22.5699746,3.63330701 22.2737413,2.5680187 21.4173043,2.08914078 C21.1606665,1.94576416 15.0490206,-1.39992935 8.47322692,1.26687584 C5.06581019,2.64902649 2.14160578,5.93235117 0.841552008,9.83506286 C-0.289120813,13.2295044 -0.772333127,18.654159 3.34267068,25.2200914 C9.88986758,35.6665122 24.3085124,46.8190629 29.4119384,46.818346 C29.5468565,46.818346 29.6751754,46.8104603 29.7954286,46.7954057 C33.0327311,46.3760291 38.948599,39.1663356 42.1353072,34.4220031 C45.3623443,29.6181694 50.6168199,20.3933174 49.5528729,12.587894 C49.0088008,8.5977226 47.3179243,5.89005506 44.5279048,4.54088104" id="Fill-9" fill="#FF2626" mask="url(#mask-2)"></path>
                            <path d="M39.9743436,19.7626036 C39.8445582,18.8084322 38.9455927,18.1374296 37.9667028,18.2643179 C36.9885462,18.3912062 36.3000236,19.2672374 36.4305423,20.2221257 C36.5603277,21.1755803 37.4592932,21.8465829 38.4374498,21.7196945 C39.4163397,21.5928062 40.104129,20.7167751 39.9743436,19.7626036" id="Fill-12" fill="#FF2626" mask="url(#mask-2)"></path>
                        </g>
                    </g>
                </g>
            </g>
        </g>
    </g>
</svg>

<svg width="221" height="55" viewBox="0 0 221 55" xmlns="http://www.w3.org/2000/svg" xmlns:xlink="http://www.w3.org/1999/xlink"><defs><path id="path-1" d="M.048.239h49.645v46.58H.048z"/></defs><g id="Kitchen" stroke="none" stroke-width="1" fill="none" fill-rule="evenodd"><g id="Index" transform="translate(-135 -5672)"><g id="footer" transform="translate(0 4227)"><g id="logotype" transform="translate(135 1445)"><text id="I-Love-Kitchen" font-family="Circe-Bold, Circe" font-size="27.6" font-weight="bold" letter-spacing=".166" fill="#1A1A1A"><tspan x="127.267" y="21">I </tspan> <tspan x="143.026" y="21" font-family="Circe-ExtraBold, Circe" font-weight="600">Love</tspan> <tspan x="127.267" y="48">Kitchen</tspan></text><g id="symbol"><path d="M7.141 5.205c.063.295 6.23 29.692 6.667 48.054.023.949.819 1.702 1.786 1.702h.043c.987-.022 1.769-.82 1.745-1.783-.445-18.677-6.676-48.378-6.74-48.676-.198-.943-1.14-1.549-2.11-1.356-.967.195-1.59 1.116-1.39 2.06z" id="Fill-1" fill="#1A1A1A"/><path d="M102.288 8.6c-1.211-6.365-10.474-7.331-10.867-7.37l-2.26-.217.313 2.194c.043.298 4.265 30.016 3.495 48.371-.04.962.726 1.774 1.713 1.813l.074.002c.954 0 1.745-.734 1.785-1.672.653-15.566-2.205-39.035-3.198-46.575 2.109.557 4.983 1.739 5.43 4.09 1.095 5.753-1.089 8.589-2.394 10.283l-.064.083a1.715 1.715 0 00.357 2.44c.79.579 1.91.422 2.503-.348l.063-.082c1.439-1.868 4.432-5.755 3.05-13.012" id="Fill-3" fill="#1A1A1A"/><path d="M15.145 1.279c-.956.242-1.529 1.194-1.28 2.126.755 2.82 2.735 10.63 2.85 12.865.048.931.838 1.655 1.784 1.655.03 0 .06 0 .09-.002.987-.048 1.746-.867 1.696-1.828-.154-2.997-2.673-12.495-2.96-13.569-.25-.932-1.224-1.49-2.18-1.247" id="Fill-5" fill="#1A1A1A"/><path d="M1.337 5.19C.382 5.433-.19 6.384.058 7.316c.753 2.82 2.735 10.628 2.85 12.864.047.932.836 1.656 1.783 1.656.03 0 .06 0 .091-.003.986-.048 1.745-.866 1.696-1.827-.154-2.997-2.673-12.496-2.96-13.57-.25-.931-1.228-1.49-2.18-1.246" id="Fill-7" fill="#1A1A1A"/><g id="Group-11" transform="translate(29.33 .478)"><mask id="mask-2" fill="#fff"><use xlink:href="#path-1"/></mask><path d="M44.528 4.54c-4.306-2.08-10.676-.717-19.474 4.172-6.46 3.59-10.049 7.402-10.669 11.331-.423 2.68.538 5.275 2.854 7.71 3.42 3.596 8.122 5.062 12.9 4.024 3.681-.801 6.62-3.026 7.485-5.67.3-.917-.22-1.898-1.16-2.19-.939-.294-1.946.213-2.246 1.13-.472 1.44-2.468 2.808-4.857 3.327-1.658.361-5.904.79-9.501-2.991-1.558-1.639-2.193-3.212-1.941-4.81.433-2.745 3.596-5.882 8.905-8.833C36.264 6.494 40.8 6.628 42.94 7.664c1.682.813 2.686 2.574 3.07 5.383C47.582 24.59 32.276 42.389 29.3 43.34h-.022c-2.478 0-16.143-9.179-22.886-19.938-3.406-5.435-3.05-9.792-2.151-12.49.971-2.917 3.17-5.44 5.604-6.426 4.92-1.996 9.75.603 9.793.627.858.479 1.95.19 2.44-.645a1.72 1.72 0 00-.662-2.379c-.256-.143-6.368-3.489-12.944-.822-3.406 1.382-6.33 4.665-7.63 8.568-1.131 3.395-1.614 8.82 2.5 15.385 6.548 10.447 20.967 21.6 26.07 21.598.135 0 .263-.008.383-.023 3.238-.419 9.154-7.629 12.34-12.373 3.227-4.804 8.482-14.029 7.418-21.834-.544-3.99-2.235-6.698-5.025-8.047" id="Fill-9" fill="#FF2626" mask="url(#mask-2)"/><path d="M39.974 19.763c-.13-.955-1.028-1.626-2.007-1.499-.978.127-1.667 1.003-1.536 1.958.13.954 1.028 1.625 2.006 1.498.98-.127 1.667-1.003 1.537-1.957" id="Fill-12" fill="#FF2626" mask="url(#mask-2)"/></g></g></g></g></g></g></svg>
